!!!!SEGMENT: pl-cz--iii-572--003_rygall-ignacy--salve-regina-eia-ergo.krn
!!!cenid: 18xx:1029
!!!COM: Rygall, Ignacy
!!!COM-rismID: pe30110281
!!!CDT: <1750->1799
!!!CNT:
!!!OPR: Salve Regina
!!!OTL: Eia ergo
!!!OMV: 003
!!!PDT:
!!!AGN: Sacred
!!!SMS-siglum: PL-CZ
!!!SMS-shelfmark: III-572
!!!SMS-shelfwork: 001-003 M
!!!SMS-variant:
!!!SMS-altvar:
!!!NIFC-rismSourceID: 300001134
!!!NIFC-rismChildID: 300001134
!!!NIFC-islandoraID: pl-cz:39233
!!!URL-pdf-islandora: https://repozytorium.nifc.pl/islandora/object/pl-cz%3A39233/datastream/PDF/view
!!!URL-scan:
!!!ONB-nifc: UWAGA: części Salve Regina: Salve Regina, Ad te suspiramus, Eia ergo, O clemens o pia
!!!AIN: 1 bass 2 cor 1 soprn 1 viola 2 violn
!!!key: F
**kern	**dynam	**kern	**kern	**dynam	**kern	**dynam	**kern	**text	**kern	**kern
*part7	*part7	*part6	*part5	*part5	*part4	*part4	*part3	*part3	*part2	*part1
*staff7	*	*staff6	*staff5	*	*staff4	*	*staff3	*staff3	*staff2	*staff1
*Ibass	*	*Iviola	*Ivioln	*	*Ivioln	*	*Isoprn	*	*Icor	*Icor
*I"Basso	*	*I"Viola	*I"Violino 2do.	*	*I"Violino 1mo	*	*I"Soprano	*	*I"Corno in F	*I"Corno in F
*I'B.	*	*I'V-la	*I'V-no II	*	*I'V-no I	*	*I'S.	*	*I'C. in F	*I'C. in F
*ICstr	*	*ICstr	*ICstr	*	*ICstr	*	*ICvox	*	*ICbras	*ICbras
*clefF4	*	*clefC3	*clefG2	*	*clefG2	*	*clefC1	*	*clefG2	*clefG2
*ITrd0c0	*	*	*	*	*	*	*	*	*ITrd4c7	*ITrd4c7
*k[b-]	*	*k[b-]	*k[b-]	*	*k[b-]	*	*k[b-]	*	*k[b-]	*k[b-]
*F:	*	*F:	*F:	*	*F:	*	*F:	*	*F:	*F:
*M2/4	*	*M2/4	*M2/4	*	*M2/4	*	*M2/4	*	*M2/4	*M2/4
*	*below	*	*	*below	*	*below	*	*	*	*
=1	=1	=1	=1	=1	=1	=1	=1	=1	=1	=1
!	!	!	!	!	!LO:TX:t=P:problem=all\right&colon; global	!LO:DY:rj	!	!	!	!
!LO:TX:rj:a:t=allegretto	!	!LO:TX:a:t=Allegretto Eja ergo Tacet	!LO:TX:rj:a:t=allegretto	!	!LO:TX:rj:a:t=allegretto	!	!LO:TX:b:t=16.	!	!LO:TX:a:t=ad te Suspiramus Eja ergo Tacet!	!LO:TX:a:t=ad te Suspiramus Eja ergo Tacet!
2r	.	2ryy	2r	.	(16cc\LL	p	0r	.	2ryy	2ryy
.	.	.	.	.	16bn\)	.	.	.	.	.
.	.	.	.	.	(16dd\	.	.	.	.	.
.	.	.	.	.	16cc\JJ)	.	.	.	.	.
.	.	.	.	.	(16cc\LL	.	.	.	.	.
.	.	.	.	.	16b\)	.	.	.	.	.
.	.	.	.	.	(16dd\	.	.	.	.	.
.	.	.	.	.	16cc\JJ)	.	.	.	.	.
=2	=2	=2	=2	=2	=2	=2	=2	=2	=2	=2
!	!	!	!	!	!	!LO:DY:rj	!	!	!	!
8r	.	2ryy	8r	.	(16cc\LL	f	.	.	2ryy	2ryy
.	.	.	.	.	16bn\JJ)	.	.	.	.	.
*	*below	*	*	*	*	*	*	*	*	*
!LO:TX:t=P:problem=all\right&colon; global	!LO:DY:t=p&colon;	!	!	!	!	!	!	!	!	!
8D\L	p	.	8g/L	.	4.b\	.	.	.	.	.
8D\	.	.	8g/	.	.	.	.	.	.	.
8D\J	.	.	8g/J	.	.	.	.	.	.	.
=3	=3	=3	=3	=3	=3	=3	=3	=3	=3	=3
!	!	!	!	!	!	!LO:DY:rj	!	!	!	!
2r	.	2ryy	2r	.	16b-X\LL	p	.	.	2ryy	2ryy
.	.	.	.	.	16a\	.	.	.	.	.
.	.	.	.	.	(16cc\	.	.	.	.	.
.	.	.	.	.	16b-\JJ)	.	.	.	.	.
.	.	.	.	.	(16b-\LL	.	.	.	.	.
.	.	.	.	.	16a\)	.	.	.	.	.
.	.	.	.	.	(16cc\	.	.	.	.	.
.	.	.	.	.	16b-\JJ)	.	.	.	.	.
=4	=4	=4	=4	=4	=4	=4	=4	=4	=4	=4
!	!	!	!	!	!	!LO:DY:rj	!	!	!	!
8r	.	2ryy	8r	.	(16b-\LL	f	.	.	2ryy	2ryy
.	.	.	.	.	16a\JJ)	.	.	.	.	.
!	!LO:DY:t=f&colon;	!	!	!	!	!	!	!	!	!
16F\LL	f	.	16c|/LL	.	4a\	.	.	.	.	.
16G\JJ	.	.	16B-|/JJ	.	.	.	.	.	.	.
8A\L	.	.	8c|/L	.	.	.	.	.	.	.
8A\J	.	.	8c|/J	.	8f/	.	.	.	.	.
=5	=5	=5	=5	=5	=5	=5	=5	=5	=5	=5
!	!LO:DY:t=p&colon;	!	!	!	!	!	!	!	!	!
8BB-/L	p	2ryy	8d|/L	.	8g/L	.	0r	.	2ryy	2ryy
8C/	.	.	8e|/	.	8a/J	.	.	.	.	.
8D/	.	.	8f|/	.	24b-\LL	.	.	.	.	.
.	.	.	.	.	24a\	.	.	.	.	.
.	.	.	.	.	24b-\	.	.	.	.	.
8E/J	.	.	8g|/J	.	16cc|\	.	.	.	.	.
.	.	.	.	.	16b-|\JJ	.	.	.	.	.
!	!	!	!	!	!LO:LB:g=original	!	!	!	!	!
=6	=6	=6	=6	=6	=6	=6	=6	=6	=6	=6
*	*	*	*	*below	*	*	*	*	*	*
!LO:TX:t=P:problem=mixed beam	!LO:DY:t=f&colon;	!	!	!LO:DY:t=f&colon;	!	!	!	!	!	!
8F\L	f	2ryy	8g/L	f	8b-\L	.	.	.	2ryy	2ryy
8FF/J	.	.	8f/J	.	8a\J	.	.	.	.	.
8r	.	.	8r	.	8r	.	.	.	.	.
!	!	!	!	!LO:DY:t=p&colon;	!	!	!	!	!	!
8AA'/	.	.	8c/	p	8f/	.	.	.	.	.
=7	=7	=7	=7	=7	=7	=7	=7	=7	=7	=7
8BB-'/L	.	2ryy	8d/L	.	8g/L	.	.	.	2ryy	2ryy
8C'/	.	.	8e/	.	8a/J	.	.	.	.	.
8D'/	p	.	8f/	.	24b-\LL	.	.	.	.	.
.	.	.	.	.	24a\	.	.	.	.	.
.	.	.	.	.	24b-\	.	.	.	.	.
8E'/J	.	.	8g/J	.	16cc'\	.	.	.	.	.
.	.	.	.	.	16b-'\JJ	.	.	.	.	.
=8	=8	=8	=8	=8	=8	=8	=8	=8	=8	=8
4F\	f	2ryy	4g/	f	8b-\L	.	.	.	2ryy	2ryy
.	.	.	.	.	16a\L	.	.	.	.	.
.	.	.	.	.	16b-\JJ	.	.	.	.	.
4A\	.	.	4f/	.	8cc\L	.	.	.	.	.
.	.	.	.	.	16b-\L	.	.	.	.	.
.	.	.	.	.	16a\JJ	.	.	.	.	.
=9	=9	=9	=9	=9	=9	=9	=9	=9	=9	=9
!LO:TX:t=P:problem=mixed beam	!	!	!	!	!	!	!	!	!	!
8B-\L	.	2ryy	(16c/LL	.	(16a/LL	.	0r	.	2ryy	2ryy
.	.	.	16B-/)	.	16g/)	.	.	.	.	.
8BB-/	.	.	(16d/	.	(16b-/	.	.	.	.	.
.	.	.	16B-/JJ)	.	16g/JJ)	.	.	.	.	.
8C/J	.	.	(16B-/LL	.	(16g/LL	.	.	.	.	.
.	.	.	16B-/)	.	16f/)	.	.	.	.	.
8CC/	.	.	(16A/	.	(16f/	.	.	.	.	.
.	.	.	16G/JJ)	.	16e/JJ)	.	.	.	.	.
!LO:LB:g=original	!	!	!LO:LB:g=original	!	!	!	!	!	!	!
=10	=10	=10	=10	=10	=10	=10	=10	=10	=10	=10
*	*	*	*tremolo	*	*	*	*	*	*	*
!	!	!	!	!	!LO:TX:t=P:problem=mixed beam	!	!	!	!	!
16F|\LL	.	2ryy	16c/LL	.	8f/L	.	.	.	2ryy	2ryy
16C|\	.	.	16c/	.	.	.	.	.	.	.
16F|\	.	.	16c/	.	(16ff\L	.	.	.	.	.
16C|\JJ	.	.	16c/	.	16aa\JJ)	.	.	.	.	.
!	!	!	!	!	!LO:LB:g=original	!	!	!	!	!
16E|\LL	.	.	16c/	.	8.gg\L	.	.	.	.	.
16C|\	.	.	16c/	.	.	.	.	.	.	.
16E|\	.	.	16c/	.	.	.	.	.	.	.
!	!	!	!	!	!LO:TX:t=P:problem=brak kreski taktowej	!	!	!	!	!
16C|\JJ	.	.	16c/JJ	.	16b-\Jk	.	.	.	.	.
=11	=11	=11	=11	=11	=11	=11	=11	=11	=11	=11
16F\LL	.	2ryy	16c/LL	.	16a|\LL	.	.	.	2ryy	2ryy
16C\	.	.	16c/	.	16cc|\	.	.	.	.	.
16F\	.	.	16c/	.	16ff|\	.	.	.	.	.
16C\JJ	.	.	16c/	.	16aa'\JJ	.	.	.	.	.
16E\LL	.	.	16c/	.	8.gg\L	.	.	.	.	.
16C\	.	.	16c/	.	.	.	.	.	.	.
16E\	.	.	16c/	.	.	.	.	.	.	.
16C\JJ	.	.	16c/JJ	.	16b-\Jk	.	.	.	.	.
*	*	*	*Xtremolo	*	*	*	*	*	*	*
=12	=12	=12	=12	=12	=12	=12	=12	=12	=12	=12
!LO:TX:t=P:problem=mixed beam	!	!	!	!LO:TUP:a:problem=klamra łukowa	!	!	!	!	!	!
8F\L	.	2ryy	8f|/L	.	24a\LL	.	.	.	2ryy	2ryy
.	.	.	.	.	24dd\	.	.	.	.	.
.	.	.	.	.	24cc\	.	.	.	.	.
!	!	!	!LO:TUP:a:problem=klamra łukowa	!	!LO:TUP:a:problem=klamra łukowa	!	!	!	!	!
8BB-\	.	.	24d/L	.	24b-\	.	.	.	.	.
.	.	.	24c/	.	24a\	.	.	.	.	.
.	.	.	24B-/JJ	.	24g\JJ	.	.	.	.	.
8C\	.	.	8A/L	.	8f/L	.	.	.	.	.
8CC/J	.	.	8G/J	.	8en/J	.	.	.	.	.
=13	=13	=13	=13	=13	=13	=13	=13	=13	=13	=13
*	*	*	*tremolo	*	*	*	*	*	*	*
!	!	!	!	!	!LO:TX:t=P:problem=mixed beam	!	!	!	!	!
16F\LL	.	2ryy	16c/LL	.	8f/L	.	0r	.	2ryy	2ryy
16C\	.	.	16c/	.	.	.	.	.	.	.
16F\	.	.	16c/	.	16.ff\L	.	.	.	.	.
16C\JJ	.	.	16c/	.	.	.	.	.	.	.
.	.	.	.	.	32aa\JJk	.	.	.	.	.
16E\LL	.	.	16c/	.	8.gg\L	.	.	.	.	.
16C\	.	.	16c/	.	.	.	.	.	.	.
16E\	.	.	16c/	.	.	.	.	.	.	.
16C\JJ	.	.	16c/JJ	.	16b-\Jk	.	.	.	.	.
=14	=14	=14	=14	=14	=14	=14	=14	=14	=14	=14
16F\LL	.	2ryy	16c/LL	.	16a\LL	.	.	.	2ryy	2ryy
16C\	.	.	16c/	.	16cc\	.	.	.	.	.
16F\	.	.	16c/	.	16ff\	.	.	.	.	.
16C\JJ	.	.	16c/	.	16aa\JJ	.	.	.	.	.
16E\LL	.	.	16c/	.	8.gg\L	.	.	.	.	.
16C\	.	.	16c/	.	.	.	.	.	.	.
16E\	.	.	16c/	.	.	.	.	.	.	.
16C\JJ	.	.	16c/JJ	.	16b-\Jk	.	.	.	.	.
*	*	*	*Xtremolo	*	*	*	*	*	*	*
=15	=15	=15	=15	=15	=15	=15	=15	=15	=15	=15
!	!	!	!LO:TUP:a:problem=klamra łukowa	!	!LO:TUP:a:problem=klamra łukowa	!	!	!	!	!
!LO:TX:t=P:problem=mixed beam	!	!	!	!	!LO:TX:t=P:problem=mixed beam	!	!	!	!	!
8F\L	.	2ryy	24f\LL	.	24g/LL	.	.	.	2ryy	2ryy
.	.	.	24dd\	.	24ff\	.	.	.	.	.
.	.	.	24cc\	.	24ee\	.	.	.	.	.
8B-\	.	.	24b-\	.	24dd\	.	.	.	.	.
.	.	.	24a\	.	24cc\	.	.	.	.	.
.	.	.	24g\JJ	.	24b-\JJ	.	.	.	.	.
8c\	.	.	8f/L	.	8a/L	.	.	.	.	.
8C/J	.	.	8e/J	.	8g/J	.	.	.	.	.
=16	=16	=16	=16	=16	=16	=16	=16	=16	=16	=16
8F\L	.	2ryy	2A/	.	4f/	.	.	.	2ryy	2ryy
8C\J	.	.	.	.	.	.	.	.	.	.
4FF/	.	.	.	.	4r	.	.	.	.	.
!	!	!	!	!	!LO:LB:g=original	!	!	!	!	!
=17	=17	=17	=17	=17	=17	=17	=17	=17	=17	=17
2r	p	2ryy	2r	.	(16cc\LL	.	(16cc\LL	E-	2ryy	2ryy
.	.	.	.	.	16bn\)	.	16bn\)	.	.	.
.	.	.	.	.	(16dd\	.	(16dd\	.	.	.
.	.	.	.	.	16cc\JJ)	.	16cc\JJ)	.	.	.
.	.	.	.	.	(16cc\LL	.	(16cc\LL	.	.	.
.	.	.	.	.	16b\)	.	16bn\)	.	.	.
.	.	.	.	.	(16dd\	.	(16dd\	-ja	.	.
.	.	.	.	.	16cc\JJ)	.	16cc\JJ)	.	.	.
=18	=18	=18	=18	=18	=18	=18	=18	=18	=18	=18
!	!	!	!	!LO:DY:rj:t=p&colon;	!	!	!	!	!	!
8r	.	2ryy	8r	p	16cc\LL	.	16cc\LL	er-	2ryy	2ryy
.	.	.	.	.	16bn\JJ	.	16bn\JJ	.	.	.
8D\L	.	.	8g/L	.	4.b\	.	4.b\	-go	.	.
8D\	.	.	8g/	.	.	.	.	.	.	.
8D\J	.	.	8g/J	.	.	.	.	.	.	.
!LO:LB:g=original	!	!	!	!	!	!	!LO:LB:g=original	!	!	!
=19	=19	=19	=19	=19	=19	=19	=19	=19	=19	=19
!	!	!	!	!	!	!LO:DY:rj	!	!	!	!
2r	.	2ryy	2r	.	(16b-X\LL	p	(16b-X\LL	ad-	2ryy	2ryy
.	.	.	.	.	16a\)	.	16a\)	.	.	.
.	.	.	.	.	(16cc\	.	(16cc\	-vo-	.	.
.	.	.	.	.	16b-\JJ)	.	16b-\JJ)	.	.	.
.	.	.	.	.	(16b-\LL	.	(16b-\LL	-ca-	.	.
.	.	.	.	.	16a\)	.	16a\)	.	.	.
.	.	.	.	.	(16cc\	.	(16cc\	-ta	.	.
.	.	.	.	.	16b-\JJ)	.	16b-\JJ)	.	.	.
=20	=20	=20	=20	=20	=20	=20	=20	=20	=20	=20
!	!	!	!	!	!	!LO:DY:rj	!	!	!	!
8r	.	2ryy	8r	.	16b-\LL	f	16b-\LL	nos-	2ryy	2ryy
.	.	.	.	.	16a\JJ	.	16a\JJ	.	.	.
16F\LL	.	.	16A/LL	.	4.a\	.	4a\	-tra	.	.
16G\JJ	.	.	16B-/JJ	.	.	.	.	.	.	.
8A\L	.	.	8c/L	.	.	.	.	.	.	.
8A\J	.	.	8c/J	.	.	.	8f/	il-	.	.
!	!	!	!LO:LB:g=original	!	!	!	!	!	!	!
=21	=21	=21	=21	=21	=21	=21	=21	=21	=21	=21
8BB-|/L	.	2ryy	8d/L	.	8g/L	.	8g\L	.	2ryy	2ryy
8C|/	.	.	8e/	.	8a/	.	8a\J	.	.	.
!	!	!	!	!	!	!	!LO:TUP:a:problem=klamra łukowa	!	!	!
8D|/	.	.	8f/	.	8b-/	.	24b-\LL	.	.	.
.	.	.	.	.	.	.	24a\	.	.	.
.	.	.	.	.	.	.	24b-\JJ	.	.	.
8E|/J	.	.	8g/J	.	8cc/J	.	(16cc\LL	-los	.	.
.	.	.	.	.	.	.	16b-\JJ)	.	.	.
=22	=22	=22	=22	=22	=22	=22	=22	=22	=22	=22
!LO:TX:t=P:problem=mixed beam	!	!	!	!LO:DY:t=f&colon;	!	!	!	!	!	!
8F|\L	.	2ryy	4g/	f	4b-\	.	4b-\	tu-	2ryy	2ryy
8FF/J	.	.	.	.	.	.	.	.	.	.
!	!	!	!	!LO:DY:t=p&colon;	!	!LO:DY:rj	!	!	!	!
4AA/	.	.	8f/L	p	8a\L	f	8a\	-os	.	.
.	.	.	8c/J	.	8f\J	.	8f\	mi-	.	.
=23	=23	=23	=23	=23	=23	=23	=23	=23	=23	=23
8BB-|/L	.	2ryy	8d/L	.	8g\L	.	8g\L	-se-	2ryy	2ryy
!	!	!	!	!	!	!LO:DY:rj	!	!	!	!
8C|/	.	.	8e/	.	8a\	p	8a\J	-ri-	.	.
!	!	!	!	!	!	!	!LO:TUP:a:problem=klamra łukowa	!	!	!
8D|/	.	.	8f/	.	8b-\	.	24b-\LL	-cor-	.	.
.	.	.	.	.	.	.	24a\	.	.	.
.	.	.	.	.	.	.	24b-\JJ	.	.	.
8E|/J	.	.	8g/J	.	8cc\J	.	16cc\LL	-des	.	.
.	.	.	.	.	.	.	16b-\JJ	.	.	.
!	!	!	!	!	!LO:LB:g=original	!	!	!	!	!
=24	=24	=24	=24	=24	=24	=24	=24	=24	=24	=24
!	!	!	!	!LO:DY:t=f&colon;	!	!	!	!	!	!
8r	.	2ryy	4g/	f	4b-\	.	16b-\	o-	2ryy	2ryy
.	.	.	.	.	.	.	16b-\	-cu-	.	.
!LO:TX:t=P:problem=mixed beam	!	!	!	!	!	!	!	!	!	!
8F\L	.	.	.	.	.	.	8a\	-los	.	.
!	!	!	!	!LO:DY:t=p&colon;	!	!LO:DY:rj	!	!	!	!
8FF/	.	.	8f/L	p	8a\L	f	(8.cc\L	ad	.	.
8A\J	.	.	8c/J	.	16cc\L	.	.	.	.	.
.	.	.	.	.	16a\JJ	.	16a\Jk)	.	.	.
=25	=25	=25	=25	=25	=25	=25	=25	=25	=25	=25
!LO:TX:t=P:problem=mixed beam	!	!	!	!	!	!	!	!	!	!
8B-\L	.	2ryy	(16c/LL	.	(16a\LL	.	(16a\LL	nos	2ryy	2ryy
.	.	.	16B-/)	.	16g\)	.	16g\)	.	.	.
8B-\	.	.	(16d/	.	(16b-\	.	(16b-\	.	.	.
.	.	.	16B-/JJ)	.	16g\JJ)	.	16g\JJ)	.	.	.
8c\	.	.	(16B-/LL	.	(16g/LL	.	(16g\LL	con-	.	.
.	.	.	16A/)	.	16f/)	.	16f\)	.	.	.
8C/J	.	.	(16A/	.	(16f/	.	(16f\	-ver-	.	.
.	.	.	16G/JJ)	.	16e/JJ)	.	16e\JJ)	.	.	.
=26	=26	=26	=26	=26	=26	=26	=26	=26	=26	=26
4F\	.	2ryy	16A'/LL	f	16f|/LL	.	4f/	-te	2ryy	2ryy
.	.	.	16f'/	.	16a|/	.	.	.	.	.
.	.	.	16g'/	.	16b-|/	.	.	.	.	.
.	.	.	16a'/JJ	.	16cc|/JJ	.	.	.	.	.
4r	.	.	16b-|\LL	.	16dd|\LL	.	4r	.	.	.
.	.	.	16g|\	.	16ee|\	.	.	.	.	.
.	.	.	16a|\	.	16ff|\	.	.	.	.	.
.	.	.	16b-|\JJ	.	16gg|\JJ	.	.	.	.	.
!	!	!	!	!	!	!	!LO:LB:g=original	!	!	!
=27	=27	=27	=27	=27	=27	=27	=27	=27	=27	=27
*2\right	*	*	*2\right	*	*2\right	*	*	*	*	*
*tremolo	*	*	*tremolo	*	*tremolo	*	*	*	*	*
!	!	!	!	!LO:DY:t=f&colon;p&colon;	!	!	!	!	!	!
16F\LL	.	2ryy	16cc\LL	fp	16aa\LL	fp	4cc\	il-	2ryy	2ryy
16F\	.	.	16cc\	.	16aa\	.	.	.	.	.
16F\	.	.	16cc\	.	16aa\	.	.	.	.	.
16F\	.	.	16cc\	.	16aa\	.	.	.	.	.
16F\	.	.	16cc\	.	16aa\	.	8ff\L	-los	.	.
16F\	.	.	16cc\	.	16aa\	.	.	.	.	.
16F\	.	.	16cc\	.	16aa\	.	8aa\J	.	.	.
16F\JJ	.	.	16cc\JJ	.	16aa\JJ	.	.	.	.	.
=28	=28	=28	=28	=28	=28	=28	=28	=28	=28	=28
!	!	!	!	!LO:DY:t=f&colon;p&colon;	!	!	!	!	!	!
16E\LL	.	2ryy	16cc\LL	fp	16gg\LL	fp	16gg\LL	tu-	2ryy	2ryy
16E\	.	.	16cc\	.	16gg\	.	16ee\J	.	.	.
16E\	.	.	16cc\	.	16gg\	.	8cc\J	-os	.	.
16E\	.	.	16cc\	.	16gg\	.	.	.	.	.
16E\	.	.	16cc\	.	16gg\	.	8r	.	.	.
16E\	.	.	16cc\	.	16gg\	.	.	.	.	.
16E\	.	.	16cc\	.	16gg\	.	8gg\	mi-	.	.
16E\JJ	.	.	16cc\JJ	.	16gg\JJ	.	.	.	.	.
*	*	*	*Xtremolo	*	*	*	*	*	*	*
=29	=29	=29	=29	=29	=29	=29	=29	=29	=29	=29
!	!	!	!	!LO:DY:t=f&colon;p&colon;	!	!	!	!	!	!
16D\LL	.	2ryy	16a\LL	fp	16ff\LL	fp	8.ff\L	-se-	2ryy	2ryy
16D\	.	.	16a\	.	16ff\	.	.	.	.	.
16D\	.	.	16a\	.	16ff\	.	.	.	.	.
16D\JJ	.	.	16a\JJ	.	16ff\	.	32ee\LL	-ri-	.	.
.	.	.	.	.	.	.	32ff\JJJ	.	.	.
*	*	*	*tremolo	*	*	*	*	*	*	*
16GG/LL	.	.	16bn\LL	.	16ff\	.	8gg\	-cor-	.	.
16GG/	.	.	16bn\	.	16ff\	.	.	.	.	.
16GG/	.	.	16bn\	.	16ff\	.	8ff\	-des	.	.
16GG/JJ	.	.	16bn\JJ	.	16ff\JJ	.	.	.	.	.
!LO:LB:g=original	!	!	!	!	!	!	!	!	!	!
=30	=30	=30	=30	=30	=30	=30	=30	=30	=30	=30
!	!	!	!	!LO:DY:t=f&colon;p&colon;	!	!	!	!	!	!
16D\LL	.	2ryy	16cc\LL	fp	16ee\LL	fp	16ff\	o-	2ryy	2ryy
16D\	.	.	16cc\	.	16ee\	.	16ee\	-cu-	.	.
16D\	.	.	16cc\	.	16ee\	.	8ee\	-los	.	.
16D\	.	.	16cc\	.	16ee\	.	.	.	.	.
16D\	.	.	16cc\	.	16ee\	.	(8gg\L	ad	.	.
16D\	.	.	16cc\	.	16ee\	.	.	.	.	.
16D\	.	.	16cc\	.	16ee\	.	8ee\J)	.	.	.
16D\JJ	.	.	16cc\JJ	.	16ee\JJ	.	.	.	.	.
=31	=31	=31	=31	=31	=31	=31	=31	=31	=31	=31
!	!	!	!	!LO:DY:t=f&colon;p&colon;	!	!	!	!	!	!
16F\LL	.	2ryy	16a\LL	fp	16dd\LL	fp	16ee\LL	nos	2ryy	2ryy
16F\	.	.	16a\	.	16dd\	.	16dd\JJ	.	.	.
16F\	.	.	16a\	.	16dd\	.	4dd\	.	.	.
16F\JJ	.	.	16a\	.	16dd\	.	.	.	.	.
16F#X\LL	.	.	16a\	.	16dd\	.	.	.	.	.
16F#X\	.	.	16a\	.	16dd\	.	.	.	.	.
16F#X\	.	.	16a\	.	16dd\	.	8cc\	con-	.	.
16F#X\JJ	.	.	16a\JJ	.	16dd\JJ	.	.	.	.	.
!	!	!	!LO:LB:g=original	!	!	!	!	!	!	!
=32	=32	=32	=32	=32	=32	=32	=32	=32	=32	=32
16G\LL	.	2ryy	16bn\LL	.	16dd\LL	.	16bn\LL	-ver-	2ryy	2ryy
16G\	.	.	16bn\	.	16dd\	.	16a\J	.	.	.
16G\	.	.	16bn\	.	16dd\	.	8g\J	-te	.	.
16G\JJ	.	.	16bn\JJ	.	16dd\JJ	.	.	.	.	.
*Xtremolo	*	*	*	*	*	*	*	*	*	*
16G\LL	.	.	16dd\LL	.	16bbn\LL	.	4r	.	.	.
16G\	.	.	16dd\	.	16bbn\	.	.	.	.	.
16F\	.	.	16dd\	.	16bbn\	.	.	.	.	.
16F\JJ	.	.	16dd\JJ	.	16bbn\JJ	.	.	.	.	.
*	*	*	*Xtremolo	*	*Xtremolo	*	*	*	*	*
=33	=33	=33	=33	=33	=33	=33	=33	=33	=33	=33
*tremolo	*	*	*	*	*	*	*	*	*	*
!	!	!	!	!LO:DY:t=f&colon;p&colon;	!	!	!	!	!	!
16E\LL	.	2ryy	16ee\LL	fp	16ccc\LL	fp	4cc\	ad	2ryy	2ryy
16E\	.	.	16cc\	.	16gg\	.	.	.	.	.
16E\	.	.	16cc\	.	16gg\	.	.	.	.	.
16E\	.	.	16cc\JJ	.	16gg\JJ	.	.	.	.	.
!	!	!	!	!	!LO:LB:g=original	!	!	!	!	!
*	*	*	*tremolo	*	*tremolo	*	*	*	*	*
16E\	.	.	16cc\LL	.	16gg\LL	.	8.cc\	nos	.	.
16E\	.	.	16cc\	.	16gg\	.	.	.	.	.
16E\	.	.	16cc\	.	16gg\	.	.	.	.	.
16E\JJ	.	.	16cc\JJ	.	16gg\JJ	.	16b-X\	con-	.	.
=34	=34	=34	=34	=34	=34	=34	=34	=34	=34	=34
!	!	!	!	!LO:DY:t=f&colon;p&colon;	!	!	!	!	!	!
16F\LL	.	2ryy	16cc\LL	fp	16aa\LL	fp	(32a\LLL	-ver-	2ryy	2ryy
.	.	.	.	.	.	.	32b-X\	.	.	.
16F\	.	.	16cc\	.	16aa\	.	32a\	.	.	.
.	.	.	.	.	.	.	32g#X\JJ)	.	.	.
16F\	.	.	16cc\	.	16aa\	.	8a\J	.	.	.
16F\	.	.	16cc\JJ	.	16aa\	.	.	.	.	.
*	*	*	*Xtremolo	*	*	*	*	*	*	*
!	!	!	!	!	!	!	!LO:LB:g=original	!	!	!
16F\	.	.	16cc\LL	.	16aa\	.	16r	.	.	.
16F\	.	.	16cc\	.	16aa\	.	16a\LL	.	.	.
16F\	.	.	16cc#X\	.	16aa\	.	16b-\	.	.	.
16F\JJ	.	.	16cc#\JJ	.	16aa\JJ	.	16cc#X\JJ	.	.	.
=35	=35	=35	=35	=35	=35	=35	=35	=35	=35	=35
*	*	*	*tremolo	*	*	*	*	*	*	*
!	!	!	!	!LO:DY:t=f&colon;p&colon;	!	!	!	!	!	!
16BBn/LL	.	2ryy	16dd\LL	fp	16aa\LL	fp	(32dd\LLL	.	2ryy	2ryy
.	.	.	.	.	.	.	32ee\	.	.	.
16BBn/	.	.	16dd\	.	16aa\	.	32dd\	.	.	.
.	.	.	.	.	.	.	32cc#X\J)	.	.	.
16BBn/	.	.	16dd\	.	16aa\	.	16dd\	.	.	.
16BBn/	.	.	16dd\	.	16aa\	.	16ee\JJ	.	.	.
16BBn/	.	.	16dd\	.	16aa\	.	(32ff\LLL	.	.	.
.	.	.	.	.	.	.	32ee\	.	.	.
16BBn/	.	.	16dd\	.	16aa\	.	32dd\	.	.	.
.	.	.	.	.	.	.	32cc#\JJJ)	.	.	.
16BBn/	.	.	16dd\	.	16aa\	.	(32bn\LLL	.	.	.
.	.	.	.	.	.	.	32a\	.	.	.
16BBn/JJ	.	.	16dd\JJ	.	16aa\JJ	.	32g\	.	.	.
.	.	.	.	.	.	.	32f\JJJ)	.	.	.
=36	=36	=36	=36	=36	=36	=36	=36	=36	=36	=36
!	!	!	!	!LO:DY:t=f&colon;p&colon;	!	!	!	!	!	!
16E\LL	.	2ryy	16dd\LL	fp	16gg\LL	fp	(32g\LLL	.	2ryy	2ryy
.	.	.	.	.	.	.	32a\	.	.	.
16E\	.	.	16dd\	.	16gg\	.	32g\	.	.	.
.	.	.	.	.	.	.	32f#X\JJ)	.	.	.
16E\	.	.	16dd\	.	16gg\	.	8g|\J	.	.	.
16E\	.	.	16dd\JJ	.	16gg\	.	.	.	.	.
*	*	*	*Xtremolo	*	*	*	*	*	*	*
16E\	.	.	16dd\LL	.	16gg\	.	16r	.	.	.
16E\	.	.	16dd\	.	16gg\	.	16g\LL	.	.	.
16E\	.	.	16bn\	.	16gg\	.	16a\	.	.	.
16E\JJ	.	.	16b\JJ	.	16gg\JJ	.	16bn\JJ	.	.	.
=37	=37	=37	=37	=37	=37	=37	=37	=37	=37	=37
*	*	*	*tremolo	*	*	*	*	*	*	*
!	!	!	!	!LO:DY:t=f&colon;p&colon;	!	!	!	!	!	!
16AA/LL	.	2ryy	16cc\LL	fp	16gg\LL	fp	(32cc\LLL	.	2ryy	2ryy
.	.	.	.	.	.	.	32dd\	.	.	.
16AA/	.	.	16cc\	.	16gg\	.	32cc\	.	.	.
.	.	.	.	.	.	.	32bn\J)	.	.	.
16AA/	.	.	16cc\	.	16gg\	.	16cc\	.	.	.
16AA/	.	.	16cc\	.	16gg\	.	16dd\JJ	.	.	.
16AA/	.	.	16cc\	.	16gg\	.	(32ee\LLL	.	.	.
.	.	.	.	.	.	.	32dd\	.	.	.
16AA/	.	.	16cc\	.	16gg\	.	32cc\	.	.	.
.	.	.	.	.	.	.	32b\JJJ)	.	.	.
16AA/	.	.	16cc\	.	16gg\	.	(32a\LLL	.	.	.
.	.	.	.	.	.	.	32g\	.	.	.
16AA/JJ	.	.	16cc\JJ	.	16gg\JJ	.	32f\	.	.	.
.	.	.	.	.	.	.	32e\JJJ)	.	.	.
=38	=38	=38	=38	=38	=38	=38	=38	=38	=38	=38
16D\LL	.	2ryy	16cc\LL	fp	16ff\LL	fp	(32f/LLL	.	2ryy	2ryy
.	.	.	.	.	.	.	32g/	.	.	.
16D\	.	.	16cc\	.	16ff\	.	32f/	.	.	.
.	.	.	.	.	.	.	32e/JJ)	.	.	.
16D\	.	.	16cc\	.	16ff\	.	8f|/J	.	.	.
16D\	.	.	16cc\JJ	.	16ff\	.	.	.	.	.
*	*	*	*Xtremolo	*	*	*	*	*	*	*
16D\	.	.	16cc\LL	.	16ff\	.	16r	.	.	.
16D\	.	.	16cc\	.	16ff\	.	16f/LL	.	.	.
16D\	.	.	16a\	.	16ff\	.	16g/	.	.	.
16D\JJ	.	.	16a\JJ	.	16ff\JJ	.	16a/JJ	.	.	.
!	!	!	!	!	!	!	!LO:LB:g=original	!	!	!
=39	=39	=39	=39	=39	=39	=39	=39	=39	=39	=39
*	*	*	*tremolo	*	*	*	*	*	*	*
16GG/LL	.	2ryy	8bn\L	.	16ff\LL	fp	(32bn\LLL	.	2ryy	2ryy
.	.	.	.	.	.	.	32cc\)	.	.	.
16GG/	.	.	.	.	16ff\	.	(32b\	.	.	.
.	.	.	.	.	.	.	32cc\JJJ)	.	.	.
16GG/	.	.	8bn\	.	16ff\	.	(32dd\LLL	.	.	.
.	.	.	.	.	.	.	32ee\)	.	.	.
16GG/	.	.	.	.	16ff\	.	(32dd\	.	.	.
.	.	.	.	.	.	.	32ee\JJJ)	.	.	.
16GG/	.	.	8bn\	.	16ff\	.	(32ff\LLL	.	.	.
.	.	.	.	.	.	.	32ee\)	.	.	.
16GG/	.	.	.	.	16ff\	.	(32dd\	.	.	.
.	.	.	.	.	.	.	32cc\JJJ)	.	.	.
16GG/	.	.	8bn\J	.	16ff\	.	(32bn\LLL	.	.	.
.	.	.	.	.	.	.	32a\)	.	.	.
16GG/JJ	.	.	.	.	16ff\JJ	.	(32g\	.	.	.
.	.	.	.	.	.	.	32f\JJJ)	.	.	.
*Xtremolo	*	*	*Xtremolo	*	*Xtremolo	*	*	*	*	*
=40	=40	=40	=40	=40	=40	=40	=40	=40	=40	=40
4C/	.	2ryy	4e/	.	4ee\	.	4e/	-te	2ryy	2ryy
8r	.	.	8r	.	8r	.	8r	.	.	.
8C/	.	.	8g/	.	8cc\	.	8cc\	il-	.	.
!LO:LB:g=original	!	!	!	!	!	!	!	!	!	!
=41	=41	=41	=41	=41	=41	=41	=41	=41	=41	=41
!	!	!	!	!	!	!LO:DY:rj	!	!	!	!
8F|\L	.	2ryy	8a|/L	.	8dd|\L	p	(8dd\L	.	2ryy	2ryy
8E|\	.	.	8g|/	.	8cc'\	.	8cc\)	.	.	.
8F|\	.	.	8a|/	.	8dd'\	.	(8dd\	-los	.	.
8E|\J	.	.	8g|/J	.	8cc'\J	.	8cc\J)	.	.	.
=42	=42	=42	=42	=42	=42	=42	=42	=42	=42	=42
!	!LO:DY:t=f&colon;p&colon;	!	!	!LO:DY:t=f&colon;p&colon;	!	!LO:DY:rj	!	!	!	!
8D\L	fp	2ryy	4g/	fp	4ff\	fp	4ff\	tu-	2ryy	2ryy
8GG\	.	.	.	.	.	.	.	.	.	.
8C\	.	.	8g/L	.	8ee\L	.	8ee\L	-os	.	.
8E\J	.	.	8g/J	.	8cc\J	.	8cc\J	mi-	.	.
=43	=43	=43	=43	=43	=43	=43	=43	=43	=43	=43
8F\L	.	2ryy	8a|/L	.	8dd\L	.	8dd\	-se-	2ryy	2ryy
8E\	.	.	8g|/	.	8cc\	.	8cc\	-ri-	.	.
8F\	.	.	8a|/	.	8dd\	.	8dd\	-cor-	.	.
8E\J	.	.	8g|/J	.	8cc\J	.	8cc\	-des	.	.
!	!	!	!LO:LB:g=original	!	!	!	!	!	!	!
=44	=44	=44	=44	=44	=44	=44	=44	=44	=44	=44
!	!	!	!	!LO:DY:t=f&colon;p	!	!LO:DY:rj	!	!	!	!
8D\L	.	2ryy	4g/	fp	4ff\	fp	8.ff\	o-	2ryy	2ryy
8GG\	.	.	.	.	.	.	.	.	.	.
.	.	.	.	.	.	.	16ff\	-cu-	.	.
8C\	.	.	8e/L	.	8ee\L	.	8ee\L	-los	.	.
8E\J	.	.	8g/J	.	16gg\L	.	16gg\L	ad	.	.
.	.	.	.	.	16ee\JJ	.	16ee\JJ	.	.	.
!	!	!	!	!	!LO:LB:g=original	!	!	!	!	!
=45	=45	=45	=45	=45	=45	=45	=45	=45	=45	=45
!LO:TX:t=P:problem=mixed beam	!	!	!	!	!	!	!	!	!	!
8F\L	.	2ryy	(16g/LL	.	(16ee\LL	.	(16ee\LL	nos	2ryy	2ryy
.	.	.	16f/)	.	16dd\)	.	16dd\)	.	.	.
8F\	.	.	(16a/	.	(16ff\	.	(16ff\	con-	.	.
.	.	.	16f/JJ)	.	16dd\JJ)	.	16dd\JJ)	.	.	.
8G\	.	.	(16f/LL	.	(16dd\LL	.	(16dd\LL	-ver-	.	.
.	.	.	16e/)	.	16cc\)	.	16cc\)	.	.	.
8GG/J	.	.	(16e/	.	(16cc\	.	(16cc\	.	.	.
.	.	.	16d/JJ)	.	16bn\JJ)	.	16bn\JJ)	.	.	.
!	!	!	!	!	!	!	!LO:LB:g=original	!	!	!
=46	=46	=46	=46	=46	=46	=46	=46	=46	=46	=46
*tremolo	*	*	*	*	*	*	*	*	*	*
8E\L	.	2ryy	16e/LL	.	16cc\LL	.	16g|\LL	-te-	2ryy	2ryy
.	.	.	16cc/	.	16gg\	.	(32a\L	.	.	.
.	.	.	.	.	.	.	32bn\JJJ)	.	.	.
8E\	.	.	16cc/	.	16gg\	.	(32cc\LLL	.	.	.
.	.	.	.	.	.	.	32dd\	.	.	.
.	.	.	16cc/JJ	.	16gg\JJ	.	32ee\	.	.	.
.	.	.	.	.	.	.	32ff\JJJ)	.	.	.
*	*	*	*tremolo	*	*tremolo	*	*	*	*	*
8E\	.	.	16cc\LL	.	16gg\LL	.	(32gg\LLL	.	.	.
.	.	.	.	.	.	.	32ff\	.	.	.
.	.	.	16cc\	.	16gg\	.	32ee\	.	.	.
.	.	.	.	.	.	.	32dd\JJJ)	.	.	.
8E\J	.	.	16cc\	.	16gg\	.	(32cc\LLL	.	.	.
.	.	.	.	.	.	.	32b\	.	.	.
.	.	.	16cc\JJ	.	16gg\JJ	.	32a\	.	.	.
.	.	.	.	.	.	.	32g\JJJ)	.	.	.
=47	=47	=47	=47	=47	=47	=47	=47	=47	=47	=47
16F\LL	.	2ryy	16cc\LL	.	16aa\LL	.	16a'\LL	.	2ryy	2ryy
16F\	.	.	16cc\	.	16aa\	.	(32bn\L	.	.	.
.	.	.	.	.	.	.	32cc\JJJ)	.	.	.
16F\	.	.	16cc\	.	16aa\	.	(32dd\LLL	.	.	.
.	.	.	.	.	.	.	32ee\	.	.	.
16F\JJ	.	.	16cc\JJ	.	16aa\JJ	.	32ff\	.	.	.
.	.	.	.	.	.	.	32gg\JJJ)	.	.	.
*Xtremolo	*	*	*Xtremolo	*	*Xtremolo	*	*	*	*	*
8F\	.	.	8cc\	.	8aa\	.	16aa\LL	.	.	.
.	.	.	.	.	.	.	16bbn\	.	.	.
8r	.	.	8r	.	8r	.	16ccc\JJ	-te	.	.
.	.	.	.	.	.	.	16r	.	.	.
=48	=48	=48	=48	=48	=48	=48	=48	=48	=48	=48
*tremolo	*	*	*tremolo	*	*tremolo	*	*	*	*	*
16G\LL	.	2ryy	16ee\LL	.	16ccc\LL	.	4g\	con-	2ryy	2ryy
16G\	.	.	16ee\	.	16ccc\	.	.	.	.	.
16G\	.	.	16ee\	.	16ccc\	.	.	.	.	.
16G\JJ	.	.	16ee\JJ	.	16ccc\JJ	.	.	.	.	.
16GG/LL	.	.	16dd\LL	.	16bbn\LL	.	4ddT\	-ver-	.	.
16GG/	.	.	16dd\	.	16bbn\	.	.	.	.	.
16GG/	.	.	16dd\	.	16bbn\	.	.	.	.	.
16GG/JJ	.	.	16dd\JJ	.	16bbn\JJ	.	.	.	.	.
*Xtremolo	*	*	*Xtremolo	*	*Xtremolo	*	*	*	*	*
=49	=49	=49	=49	=49	=49	=49	=49	=49	=49	=49
!	!LO:DY:t=for	!	!	!	!	!	!	!	!	!
16c\LL	f	2ryy	16cc\LL	f	8ccc\L	.	4cc\	-te	2ryy	2ryy
16G\	.	.	16g\	.	.	.	.	.	.	.
16c\	.	.	16g\	.	16.cc\L	.	.	.	.	.
16G\JJ	.	.	16g\JJ	.	.	.	.	.	.	.
.	.	.	.	.	32ee\JJk	.	.	.	.	.
*	*	*	*tremolo	*	*	*	*	*	*	*
16Bn\LL	.	.	16g\LL	.	8.dd\L	.	4r	.	.	.
16G\	.	.	16g\	.	.	.	.	.	.	.
16B\	.	.	16g\	.	.	.	.	.	.	.
16G\JJ	.	.	16g\JJ	.	16f\Jk	.	.	.	.	.
=50	=50	=50	=50	=50	=50	=50	=50	=50	=50	=50
!	!	!	!	!	!	!	!LO:TX:b:t=6	!	!	!
16c\LL	.	2ryy	16g\LL	.	16e|/LL	.	0r	.	2ryy	2ryy
16G\	.	.	16g\	.	16g|/	.	.	.	.	.
16c\	.	.	16g\	.	16cc|/	.	.	.	.	.
16G\JJ	.	.	16g\	.	16ee|/JJ	.	.	.	.	.
!LO:LB:g=original	!	!	!	!	!LO:TX:t=P:problem=mixed beam	!	!	!	!	!
16Bn\LL	.	.	16g\	.	8.dd\L	.	.	.	.	.
16G\	.	.	16g\	.	.	.	.	.	.	.
16B\	.	.	16g\	.	.	.	.	.	.	.
16G\JJ	.	.	16g\JJ	.	16f/Jk	.	.	.	.	.
*	*	*	*Xtremolo	*	*	*	*	*	*	*
=51	=51	=51	=51	=51	=51	=51	=51	=51	=51	=51
!	!	!	!LO:TUP:a:problem=klamra łukowa	!	!LO:TUP:a:problem=klamra łukowa	!	!	!	!	!
!LO:TX:t=P:problem=mixed beam	!	!	!LO:TX:t=P:problem=mixed beam	!	!LO:TX:t=P:problem=mixed beam	!	!	!	!	!
8c\L	.	2ryy	24e/LL	.	24a/LL	.	.	.	2ryy	2ryy
.	.	.	24ff\	.	24aa\	.	.	.	.	.
.	.	.	24ee\	.	24gg\	.	.	.	.	.
8F\	.	.	24a\	.	24ff\	.	.	.	.	.
.	.	.	24g\	.	24ee\	.	.	.	.	.
.	.	.	24f\JJ	.	24dd\JJ	.	.	.	.	.
!	!	!	!	!	!LO:TX:t=P:problem=zapis niewyraźny	!	!	!	!	!
8G\	.	.	8e/L	.	8cc\L	.	.	.	.	.
8GG/J	.	.	8d/J	.	8b-\J	.	.	.	.	.
!	!	!	!	!	!LO:LB:g=original	!	!	!	!	!
=52	=52	=52	=52	=52	=52	=52	=52	=52	=52	=52
*	*	*	*tremolo	*	*	*	*	*	*	*
!	!	!	!	!	!LO:TX:t=P:problem=mixed beam	!	!	!	!	!
16c\LL	.	2ryy	16g/LL	.	8e/L	.	.	.	2ryy	2ryy
16G\	.	.	16g/	.	.	.	.	.	.	.
16c\	.	.	16g/	.	16.cc\L	.	.	.	.	.
16G\JJ	.	.	16g/	.	.	.	.	.	.	.
.	.	.	.	.	32ee\JJk	.	.	.	.	.
!	!	!	!	!	!LO:TX:t=P:problem=mixed beam	!	!	!	!	!
16Bn\LL	.	.	16g/	.	8.dd\L	.	.	.	.	.
16G\	.	.	16g/	.	.	.	.	.	.	.
16B\	.	.	16g/	.	.	.	.	.	.	.
16G\JJ	.	.	16g/JJ	.	16f/Jk	.	.	.	.	.
=53	=53	=53	=53	=53	=53	=53	=53	=53	=53	=53
16c\LL	.	2ryy	16g/LL	.	16e/LL	.	.	.	2ryy	2ryy
16G\	.	.	16g/	.	16g'/	.	.	.	.	.
16c\	.	.	16g/	.	16cc'/	.	.	.	.	.
16G\JJ	.	.	16g/	.	16ee'/JJ	.	.	.	.	.
!	!	!	!	!	!LO:TX:t=P:problem=mixed beam	!	!	!	!	!
16Bn\LL	.	.	16g/	.	8.dd\L	.	.	.	.	.
16G\	.	.	16g/	.	.	.	.	.	.	.
16B\	.	.	16g/	.	.	.	.	.	.	.
16G\JJ	.	.	16g/JJ	.	16f/Jk	.	.	.	.	.
*	*	*	*Xtremolo	*	*	*	*	*	*	*
=54	=54	=54	=54	=54	=54	=54	=54	=54	=54	=54
!	!	!	!LO:TUP:a:problem=klamra łukowa	!	!LO:TUP:a:problem=klamra łukowa	!	!	!	!	!
!LO:TX:t=P:problem=mixed beam	!	!	!LO:TX:t=P:problem=mixed beam	!	!LO:TX:t=P:problem=mixed beam	!	!	!	!	!
8c\L	.	2ryy	24e/LL	.	24e/LL	.	1r	.	2ryy	2ryy
.	.	.	24aa\	.	24ccc\	.	.	.	.	.
.	.	.	24gg\	.	24bbn\	.	.	.	.	.
8F\	.	.	24ff\	.	24aa\	.	.	.	.	.
.	.	.	24ee\	.	24gg\	.	.	.	.	.
.	.	.	24dd\JJ	.	24ff\JJ	.	.	.	.	.
8G\	.	.	8g/L	.	8ee\L	.	.	.	.	.
8GG/J	.	.	8f/J	.	8dd\J	.	.	.	.	.
!	!	!	!LO:LB:g=original	!	!	!	!	!	!	!
=55	=55	=55	=55	=55	=55	=55	=55	=55	=55	=55
8C\L	.	2ryy	4e/	.	4cc\	.	.	.	2ryy	2ryy
8GG\J	.	.	.	.	.	.	.	.	.	.
4CC/	.	.	4r	.	4r	.	.	.	.	.
!	!	!	!	!	!	!	!LO:PB:g=original	!	!	!
=56	=56	=56	=56	=56	=56	=56	=56	=56	=56	=56
!	!LO:DY:rj:t=p&colon;	!	!	!LO:DY:rj:t=pia&colon;	!	!LO:DY:rj	!	!	!	!
2F#X\	p	2ryy	2a\	p	2cc\	p	4cc\	et	2ryy	2ryy
.	.	.	.	.	.	.	8.dd\L	.	.	.
.	.	.	.	.	.	.	16a\Jk	.	.	.
=57	=57	=57	=57	=57	=57	=57	=57	=57	=57	=57
4r	.	2ryy	4r	.	4r	.	16cc\LL	Je-	2ryy	2ryy
.	.	.	.	.	.	.	16b-\J	.	.	.
.	.	.	.	.	.	.	8b-\J	-sum	.	.
!LO:TX:t=P:problem=mixed beam	!	!	!	!	!	!	!	!	!	!
8G\L	.	.	8d/L	.	8b-\L	.	4r	.	.	.
8GG/J	.	.	8d/J	.	8b-\J	.	.	.	.	.
=58	=58	=58	=58	=58	=58	=58	=58	=58	=58	=58
2E\	.	2ryy	2g/	.	4.b-\	.	4.b-\	Be-	2ryy	2ryy
.	.	.	.	.	16cc\LL	.	(16cc\LL	-ne-	.	.
.	.	.	.	.	16g\JJ	.	16g\JJ)	.	.	.
!LO:LB:g=original	!	!	!	!	!	!	!	!	!	!
=59	=59	=59	=59	=59	=59	=59	=59	=59	=59	=59
4r	.	2ryy	4r	.	4r	.	(16b-\LL	-di-	2ryy	2ryy
.	.	.	.	.	.	.	16a\J)	.	.	.
.	.	.	.	.	.	.	8a|\J	-ctum	.	.
!LO:TX:t=P:problem=mixed beam	!	!	!	!	!	!	!	!	!	!
8F\L	.	.	8c/L	.	8a/L	.	4r	.	.	.
8FF/J	.	.	8c/J	.	8a/J	.	.	.	.	.
!	!	!	!	!	!LO:LB:g=original	!	!	!	!	!
=60	=60	=60	=60	=60	=60	=60	=60	=60	=60	=60
8.d\L	.	2ryy	8.dd\L	.	8.dd\L	.	8.dd'\L	fru-	2ryy	2ryy
!	!LO:DY:t=f&colon;	!	!	!	!	!	!	!	!	!
16c\Jk	f	.	16cc\Jk	.	16cc\Jk	.	16cc'\Jk	-ctum	.	.
16B-\LL	.	.	16b-/LL	.	16b-\LL	.	(16b-\LL	ven-	.	.
16A\	.	.	16a/	.	16a\	.	16a\)	.	.	.
16G\	.	.	16g/	.	16g\	.	(16g\	-tris	.	.
16F\JJ	.	.	16f/JJ	.	16f\JJ	.	16f\JJ)	.	.	.
=61	=61	=61	=61	=61	=61	=61	=61	=61	=61	=61
!LO:TX:t=P:problem=mixed beam	!	!	!LO:TX:t=P:problem=mixed beam	!	!LO:TX:t=P:problem=mixed beam	!	!LO:TX:t=P:problem=mixed beam	!	!	!
8c\L	.	2ryy	8cc\L	.	8cc\L	.	8cc\L	tu-	2ryy	2ryy
8C/J	.	.	8c/J	.	8c/J	.	8c/J	-i	.	.
!	!LO:DY:t=p&colon;	!	!	!	!	!	!	!	!	!
16c\LL	p	.	16cc\LL	.	16cc\LL	.	4r	.	.	.
16c\	.	.	16ee\	.	16ee\	.	.	.	.	.
16B-X\	.	.	16cc\	.	16ee\	.	.	.	.	.
16B-\JJ	.	.	16cc\JJ	.	16ee\JJ	.	.	.	.	.
=62	=62	=62	=62	=62	=62	=62	=62	=62	=62	=62
*tremolo	*	*	*	*	*	*	*	*	*	*
!	!	!	!	!LO:DY:t=fp&colon;	!	!	!	!	!	!
16A\LL	.	2ryy	16cc\LL	fp	16ff\LL	.	8cc\	no-	2ryy	2ryy
16A\	.	.	16f\	.	16cc\	.	.	.	.	.
16A\	.	.	16f\	.	16cc\	.	16ff\	-bis	.	.
16A\	.	.	16f\JJ	.	16cc\JJ	.	16ff\	post	.	.
*	*	*	*tremolo	*	*tremolo	*	*	*	*	*
16A\	.	.	16f\LL	.	16cc\LL	.	8ff\	hoc	.	.
16A\	.	.	16f\	.	16cc\	.	.	.	.	.
16A\	.	.	16f\	.	16cc\	.	8ee-X\	e-	.	.
16A\JJ	.	.	16f\JJ	.	16cc\JJ	.	.	.	.	.
=63	=63	=63	=63	=63	=63	=63	=63	=63	=63	=63
!	!	!	!	!LO:DY:t=f&colon;p&colon;	!	!LO:DY:rj	!	!	!	!
16B-\LL	.	2ryy	16f/LL	fp	16dd\LL	fp	(32dd\LLL	-xu-	2ryy	2ryy
.	.	.	.	.	.	.	32ee\)	.	.	.
16B-\	.	.	16f/	.	16dd\	.	(32dd\	-li-	.	.
.	.	.	.	.	.	.	32cc#X\JJ)	.	.	.
16B-\	.	.	16f/	.	16dd\	.	8dd|\J	-um	.	.
16B-\	.	.	16f/	.	16dd\	.	.	.	.	.
16B-\	.	.	16f/	.	16dd\	.	16r	.	.	.
16B-\	.	.	16f/	.	16dd\	.	16dd\LL	o-	.	.
16B-\	.	.	16f/	.	16dd\	.	16ee\	.	.	.
16B-\JJ	.	.	16f/JJ	.	16dd\JJ	.	16ff#X\JJ	.	.	.
!	!	!	!	!	!	!	!LO:LB:g=original	!	!	!
=64	=64	=64	=64	=64	=64	=64	=64	=64	=64	=64
!	!	!	!	!LO:DY:t=fp&colon;	!	!LO:DY:rj	!	!	!	!
16E\LL	.	2ryy	16f/LL	fp	16dd\LL	fp	(32gg\LLL	-sten-	2ryy	2ryy
.	.	.	.	.	.	.	32aa\	.	.	.
16E\	.	.	16f/	.	16dd\	.	32gg\	.	.	.
.	.	.	.	.	.	.	32ff#X\JJ)	.	.	.
16E\	.	.	16f/	.	16dd\	.	8gg'\J	.	.	.
16E\	.	.	16f/JJ	.	16dd\	.	.	.	.	.
*	*	*	*Xtremolo	*	*	*	*	*	*	*
16E\	.	.	16f/LL	.	16dd\	.	16r	.	.	.
16E\	.	.	16f/	.	16dd\	.	16ff#\LL	.	.	.
16E\	.	.	16f#X/	.	16dd\	.	16ee\	.	.	.
16E\JJ	.	.	16f#/JJ	.	16dd\JJ	.	16dd\JJ	.	.	.
=65	=65	=65	=65	=65	=65	=65	=65	=65	=65	=65
*	*	*	*tremolo	*	*	*	*	*	*	*
!	!	!	!	!LO:DY:t=fp&colon;	!	!LO:DY:rj	!	!	!	!
16A\LL	.	2ryy	16g/LL	fp	16cc\LL	fp	(32cc\LLL	.	2ryy	2ryy
.	.	.	.	.	.	.	32dd\	.	.	.
16A\	.	.	16g/	.	16cc\	.	32cc\	.	.	.
.	.	.	.	.	.	.	32bn\JJ)	.	.	.
16A\	.	.	16g/	.	16cc\	.	8cc|\J	.	.	.
16A\	.	.	16g/	.	16cc\	.	.	.	.	.
16A\	.	.	16g/	.	16cc\	.	16r	.	.	.
16A\	.	.	16g/	.	16cc\	.	16cc\LL	.	.	.
16A\	.	.	16g/	.	16cc\	.	16dd\	.	.	.
16A\JJ	.	.	16g/JJ	.	16cc\JJ	.	16een\JJ	.	.	.
=66	=66	=66	=66	=66	=66	=66	=66	=66	=66	=66
!	!	!	!	!	!	!LO:DY:rj	!	!	!	!
16D\LL	.	2ryy	16g/LL	fp	16cc\LL	fp	(32ff\LLL	.	2ryy	2ryy
.	.	.	.	.	.	.	32gg\	.	.	.
16D\	.	.	16g/	.	16cc\	.	32ff\	.	.	.
.	.	.	.	.	.	.	32een\JJ)	.	.	.
16D\	.	.	16g/	.	16cc\	.	8ff'\J	.	.	.
16D\	.	.	16g/JJ	.	16cc\	.	.	.	.	.
*	*	*	*Xtremolo	*	*	*	*	*	*	*
16D\	.	.	16g/LL	.	16cc\	.	16r	.	.	.
16D\	.	.	16g/	.	16cc\	.	16ee\LL	.	.	.
16D\	.	.	16e/	.	16cc\	.	16dd\	.	.	.
16D\JJ	.	.	16e/JJ	.	16cc\JJ	.	16cc\JJ	.	.	.
!	!	!	!LO:LB:g=original	!	!	!	!	!	!	!
=67	=67	=67	=67	=67	=67	=67	=67	=67	=67	=67
*	*	*	*tremolo	*	*	*	*	*	*	*
!	!	!	!	!LO:DY:t=fp&colon;	!	!	!	!	!	!
16G\LL	.	2ryy	16f/LL	fp	16b-\LL	fp	(32b-\LLL	.	2ryy	2ryy
.	.	.	.	.	.	.	32cc\	.	.	.
16G\	.	.	16f/	.	16b-\	.	32b-\	.	.	.
.	.	.	.	.	.	.	32a\JJ)	.	.	.
16G\	.	.	16f/	.	16b-\	.	8b-'\J	.	.	.
16G\	.	.	16f/	.	16b-\	.	.	.	.	.
16G\	.	.	16f/	.	16b-\	.	16r	.	.	.
16G\	.	.	16f/	.	16b-\	.	16b-\LL	.	.	.
16G\	.	.	16f/	.	16b-\	.	16cc\	.	.	.
16G\JJ	.	.	16f/JJ	.	16b-\JJ	.	16dd\JJ	.	.	.
=68	=68	=68	=68	=68	=68	=68	=68	=68	=68	=68
!	!	!	!	!LO:DY:t=fp&colon;	!	!	!	!	!	!
8C\L	.	2ryy	16f/LL	fp	16b-\LL	fp	(32ee\LLL	.	2ryy	2ryy
.	.	.	.	.	.	.	32ff\)	.	.	.
.	.	.	16f/	.	16b-\	.	(32ee\	.	.	.
.	.	.	.	.	.	.	32ff\JJJ)	.	.	.
8C\	.	.	16f/	.	16b-\	.	(32gg\LLL	.	.	.
.	.	.	.	.	.	.	32aa\)	.	.	.
.	.	.	16f/JJ	.	16b-\	.	(32gg\	.	.	.
.	.	.	.	.	.	.	32aa\JJJ)	.	.	.
*	*	*	*Xtremolo	*	*	*	*	*	*	*
!	!	!	!	!	!	!	!LO:LB:g=original	!	!	!
8C\	.	.	16f/LL	.	16b-\	.	(32bb-\LLL	.	.	.
.	.	.	.	.	.	.	32aa\)	.	.	.
.	.	.	16f/	.	16b-\	.	(32gg\	.	.	.
.	.	.	.	.	.	.	32ff\JJJ)	.	.	.
8C\J	.	.	16d/	.	16b-\	.	(32ee\LLL	.	.	.
.	.	.	.	.	.	.	32dd\)	.	.	.
.	.	.	16d/JJ	.	16b-\JJ	.	(32cc\	.	.	.
.	.	.	.	.	.	.	32b-\JJJ)	.	.	.
*Xtremolo	*	*	*	*	*Xtremolo	*	*	*	*	*
=69	=69	=69	=69	=69	=69	=69	=69	=69	=69	=69
*	*	*	*tremolo	*	*	*	*	*	*	*
!LO:TX:t=P:pion:problem	!	!	!	!LO:DY:t=fp&colon;	!LO:TX:t=P:pion:problem	!	!LO:TX:t=P:pion:problem	!	!	!
2ryy	.	2ryy	16e/LL	fp	2ryy	.	2ryy	.	2ryy	2ryy
.	.	.	16e/	.	.	.	.	.	.	.
.	.	.	16e/	.	.	.	.	.	.	.
.	.	.	16e/	.	.	.	.	.	.	.
.	.	.	16e/	.	.	.	.	.	.	.
.	.	.	16e/	.	.	.	.	.	.	.
.	.	.	16e/	.	.	.	.	.	.	.
.	.	.	16e/JJ	.	.	.	.	.	.	.
*	*	*	*Xtremolo	*	*	*	*	*	*	*
=70	=70	=70	=70	=70	=70	=70	=70	=70	=70	=70
4F\	.	2ryy	4f/	.	4a\	.	4a\	-de	2ryy	2ryy
8r	.	.	8r	.	8r	.	8r	.	.	.
8A\	.	.	8c/	.	8f/	.	8f/	no-	.	.
!LO:LB:g=original	!	!	!	!	!	!	!	!	!	!
=71	=71	=71	=71	=71	=71	=71	=71	=71	=71	=71
8B-\L	.	2ryy	8d|/L	.	8g/L	.	8g/	-bis	2ryy	2ryy
8A\	.	.	8c|/	.	8f/	.	8f/	post	.	.
8B-\	.	.	8d|/	.	8g/	.	8g/	hoc	.	.
8A\J	.	.	8c|/J	.	8f/J	.	8f/	e-	.	.
=72	=72	=72	=72	=72	=72	=72	=72	=72	=72	=72
.	.	.	.	.	8qqcc/	.	.	.	.	.
!	!LO:DY:t=for	!	!	!LO:DY:t=f&colon;	!	!	!	!	!	!
8G\L	f	2ryy	8e/L	f	4b-\	.	8.b-\	-xu-	2ryy	2ryy
8C\	.	.	8g/J	.	.	.	.	.	.	.
.	.	.	.	.	.	.	16b-\	-li-	.	.
!	!	!	!	!LO:DY:t=p&colon;	!	!	!	!	!	!
8F\	.	.	8f/L	p	8a\L	.	8a\L	-um	.	.
8A\J	.	.	16a/L	.	16cc\L	.	(16cc\L	o-	.	.
.	.	.	16f/JJ	.	16a\JJ	.	16a\JJ)	.	.	.
!	!	!	!	!	!LO:LB:g=original	!	!	!	!	!
=73	=73	=73	=73	=73	=73	=73	=73	=73	=73	=73
4B-\	.	2ryy	(16c/LL	.	(16a/LL	.	(16a\LL	-sten-	2ryy	2ryy
.	.	.	16B-/)	.	16g/)	.	16g\)	.	.	.
.	.	.	(16d/	.	(16b-/	.	(16b-\	.	.	.
.	.	.	16B-/JJ)	.	16g/JJ)	.	16g\JJ)	.	.	.
!LO:TX:t=P:problem=mixed beam	!	!	!	!	!	!	!	!	!	!
8c\L	.	.	(16B-/LL	.	(16g/LL	.	(16g/LL	.	.	.
.	.	.	16A/)	.	16f/)	.	16f/)	.	.	.
8C/J	.	.	(16A/	.	(16f/	.	(16f/	.	.	.
.	.	.	16G/JJ)	.	16e/JJ)	.	16e/JJ)	.	.	.
=74	=74	=74	=74	=74	=74	=74	=74	=74	=74	=74
4F\	.	2ryy	4A/	.	4f/	.	4f/	-de	2ryy	2ryy
8r	.	.	8r	.	8r	.	8r	.	.	.
8A\	.	.	8c/	.	8f/	.	8f/	no-	.	.
=75	=75	=75	=75	=75	=75	=75	=75	=75	=75	=75
8B-\L	.	2ryy	8d|/L	.	8g|/L	.	8g/	-bis	2ryy	2ryy
8A\	.	.	8c|/	.	8f|/	.	8f/	post	.	.
8B-\	.	.	8d|/	.	8g|/	.	8g/	hoc	.	.
8A\J	.	.	8c|/J	.	8f|/J	.	8f/	e-	.	.
!	!	!	!	!	!	!	!LO:LB:g=original	!	!	!
=76	=76	=76	=76	=76	=76	=76	=76	=76	=76	=76
!	!	!	!	!LO:DY:t=f&colon;	!	!	!	!	!	!
8G\L	.	2ryy	8e/L	f	4b-\	f	8.b-\	-xi-	2ryy	2ryy
8C\	.	.	8g/J	.	.	.	.	.	.	.
.	.	.	.	.	.	.	16b-\	-li-	.	.
8F\	.	.	8f/L	.	8a\L	.	8a\L	-um	.	.
8A\J	.	.	16a/L	.	16cc\L	.	(16cc\L	o-	.	.
.	.	.	16f/JJ	.	16a\JJ	.	16a\JJ)	.	.	.
=77	=77	=77	=77	=77	=77	=77	=77	=77	=77	=77
4B-\	.	2ryy	(16c/LL	.	(16a/LL	.	16a\LL	-sten-	2ryy	2ryy
.	.	.	16B-/)	.	16g/)	.	16g\	.	.	.
.	.	.	(16d/	.	(16b-/	.	16b-\	.	.	.
.	.	.	16B-/JJ)	.	16g/JJ)	.	16g\JJ	.	.	.
!LO:TX:t=P:problem=mixed beam	!	!	!	!	!	!	!	!	!	!
8c\L	.	.	(16B-/LL	.	(16g/LL	.	16g\LL	.	.	.
.	.	.	16A/)	.	16f/)	.	16f\	.	.	.
8C/J	.	.	(16A/	.	(16f/	.	16f\	.	.	.
.	.	.	16G/JJ)	.	16e/JJ)	.	16e\JJ	.	.	.
!	!	!	!LO:LB:g=original	!	!	!	!	!	!	!
=78	=78	=78	=78	=78	=78	=78	=78	=78	=78	=78
16F\LL	.	2ryy	16A/LL	.	16f\LL	.	16f\LL	-de-	2ryy	2ryy
16A\	.	.	16f/	.	16cc\	.	32g\L	.	.	.
.	.	.	.	.	.	.	32a\JJJ	.	.	.
16A\	.	.	16f/	.	16cc\	.	32b-\LLL	.	.	.
.	.	.	.	.	.	.	32cc\	.	.	.
16A\JJ	.	.	16f/JJ	.	16cc\JJ	.	32dd\	.	.	.
.	.	.	.	.	.	.	32ee\JJJ	.	.	.
*tremolo	*	*	*tremolo	*	*tremolo	*	*	*	*	*
16A\LL	.	.	16f/LL	.	16cc\LL	.	16ff\LL	.	.	.
16A\	.	.	16f/	.	16cc\	.	16ee-X\	.	.	.
16A\	.	.	16f/	.	16cc\	.	16dd\	.	.	.
16A\JJ	.	.	16f/JJ	.	16cc\JJ	.	16cc#X\JJ	.	.	.
*Xtremolo	*	*	*	*	*Xtremolo	*	*	*	*	*
=79	=79	=79	=79	=79	=79	=79	=79	=79	=79	=79
16B-\LL	.	2ryy	16f/LL	.	16dd\LL	.	16dd\LL	.	2ryy	2ryy
16B-\	.	.	16f/	.	16dd\	.	32ee-X\L	.	.	.
.	.	.	.	.	.	.	32ff#X\JJJ	.	.	.
16B-\	.	.	16f/	.	16dd\	.	32gg\LLL	.	.	.
.	.	.	.	.	.	.	32aa\	.	.	.
16B-\JJ	.	.	16f/JJ	.	16dd\JJ	.	32bb-\	.	.	.
.	.	.	.	.	.	.	32ccc\JJJ	.	.	.
8B-\	.	.	8f/	.	8dd\	.	8ddd\	-de	.	.
8r	.	.	8r	.	8r	.	8ryy	.	.	.
!LO:LB:g=original	!	!	!	!	!	!	!	!	!	!
=80	=80	=80	=80	=80	=80	=80	=80	=80	=80	=80
*tremolo	*	*	*	*	*tremolo	*	*	*	*	*
16c\LL	.	2ryy	16a/LL	f	16ff\LL	.	4c/	o-	2ryy	2ryy
16c\	.	.	16a/	.	16ff\	.	.	.	.	.
16c\	.	.	16a/	.	16ff\	.	.	.	.	.
16c\JJ	.	.	16a/JJ	.	16ff\JJ	.	.	.	.	.
16C/LL	.	.	16g/LL	.	16ee\LL	.	4gg\	-sten-	.	.
16C/	.	.	16g/	.	16ee\	.	.	.	.	.
16C/	.	.	16g/	.	16ee\	.	.	.	.	.
16C/JJ	.	.	16g/JJ	.	16ee\JJ	.	.	.	.	.
*Xtremolo	*	*	*	*	*Xtremolo	*	*	*	*	*
!	!	!	!	!	!	!	!LO:LB:g=original	!	!	!
=81	=81	=81	=81	=81	=81	=81	=81	=81	=81	=81
16F\LL	.	2ryy	16c/LL	.	8ff\L	.	4ff\	-de	2ryy	2ryy
16C\	.	.	16c/	.	.	.	.	.	.	.
16F\	.	.	16c/	.	16.ff\L	.	.	.	.	.
16C\JJ	.	.	16c/	.	.	.	.	.	.	.
.	.	.	.	.	32aa\JJk	.	.	.	.	.
16E\LL	.	.	16c/	.	8.gg\L	.	4r	.	.	.
16C\	.	.	16c/	.	.	.	.	.	.	.
16E\	.	.	16c/	.	.	.	.	.	.	.
16C\JJ	.	.	16c/JJ	.	16ff\Jk	.	.	.	.	.
=82	=82	=82	=82	=82	=82	=82	=82	=82	=82	=82
16F\LL	.	2ryy	16c/LL	.	16.a\LL	.	0r	.	2ryy	2ryy
16C\	.	.	16c/	.	.	.	.	.	.	.
.	.	.	.	.	32cc\K	.	.	.	.	.
16F\	.	.	16c/	.	16.ff\	.	.	.	.	.
16C\JJ	.	.	16c/	.	.	.	.	.	.	.
.	.	.	.	.	32aa\JJk	.	.	.	.	.
!	!	!	!	!	!LO:TX:t=P:problem=mixed beam	!	!	!	!	!
16E\LL	.	.	16c/	.	8.bb-\L	.	.	.	.	.
16C\	.	.	16c/	.	.	.	.	.	.	.
16E\	.	.	16c/	.	.	.	.	.	.	.
16C\JJ	.	.	16c/JJ	.	16b-/Jk	.	.	.	.	.
*	*	*	*Xtremolo	*	*	*	*	*	*	*
=83	=83	=83	=83	=83	=83	=83	=83	=83	=83	=83
!	!	!	!LO:TUP:a:problem=klamra łukowa	!	!LO:TUP:a:problem=klamra łukowa	!	!	!	!	!
!LO:TX:t=P:problem=mixed beam	!	!	!	!	!	!	!	!	!	!
8F\L	.	2ryy	24f/LL	.	24a\LL	.	.	.	2ryy	2ryy
.	.	.	24b-/	.	24dd\	.	.	.	.	.
.	.	.	24a/	.	24cc\	.	.	.	.	.
8BB-\	.	.	24d/	.	24b-\	.	.	.	.	.
.	.	.	24c/	.	24a\	.	.	.	.	.
.	.	.	24B-/JJ	.	24g\JJ	.	.	.	.	.
8C\	.	.	8A/L	.	8f/L	.	.	.	.	.
8CC/J	.	.	8G/J	.	8e/J	.	.	.	.	.
=84	=84	=84	=84	=84	=84	=84	=84	=84	=84	=84
*	*	*	*tremolo	*	*	*	*	*	*	*
!	!	!	!	!	!LO:TX:t=P:problem=mixed beam	!	!	!	!	!
16F\LL	.	2ryy	16c/LL	.	8f/L	.	.	.	2ryy	2ryy
16C\	.	.	16c/	.	.	.	.	.	.	.
16F\	.	.	16c/	.	16.ff\L	.	.	.	.	.
16C\JJ	.	.	16c/	.	.	.	.	.	.	.
.	.	.	.	.	32aa\JJk	.	.	.	.	.
16E\LL	.	.	16c/	.	8.gg\L	.	.	.	.	.
16C\	.	.	16c/	.	.	.	.	.	.	.
16E\	.	.	16c/	.	.	.	.	.	.	.
16C\JJ	.	.	16c/JJ	.	16b-\Jk	.	.	.	.	.
=85	=85	=85	=85	=85	=85	=85	=85	=85	=85	=85
16F\LL	.	2ryy	16c/LL	.	16.a\LL	.	.	.	2ryy	2ryy
16C\	.	.	16c/	.	.	.	.	.	.	.
.	.	.	.	.	32cc\K	.	.	.	.	.
16F\	.	.	16c/	.	16.ff\	.	.	.	.	.
16C\JJ	.	.	16c/	.	.	.	.	.	.	.
.	.	.	.	.	32aa\JJk	.	.	.	.	.
16E\LL	.	.	16c/	.	8.bb-\L	.	.	.	.	.
16C\	.	.	16c/	.	.	.	.	.	.	.
16E\	.	.	16c/	.	.	.	.	.	.	.
16C\JJ	.	.	16c/JJ	.	16b-\Jk	.	.	.	.	.
*	*	*	*Xtremolo	*	*	*	*	*	*	*
=86	=86	=86	=86	=86	=86	=86	=86	=86	=86	=86
!	!	!	!LO:TUP:a:problem=klamra łukowa	!	!LO:TUP:a:problem=klamra łukowa	!	!	!	!	!
!LO:TX:t=P:problem=mixed beam	!	!	!	!	!	!	!	!	!	!
8F\L	.	2ryy	24f\LL	.	24a\LL	.	1r	.	2ryy	2ryy
.	.	.	24dd\	.	24ff\	.	.	.	.	.
.	.	.	24cc\	.	24ee\	.	.	.	.	.
8BB-\	.	.	24b-\	.	24dd\	.	.	.	.	.
.	.	.	24a\	.	24cc\	.	.	.	.	.
.	.	.	24g\JJ	.	24b-\JJ	.	.	.	.	.
8C/	.	.	8f/L	.	8a\L	.	.	.	.	.
8CC/J	.	.	8B-/J	.	8gT\J	.	.	.	.	.
=87	=87	=87	=87	=87	=87	=87	=87	=87	=87	=87
!LO:TX:t=P:problem=mixed beam	!	!	!	!	!	!	!	!	!	!
8FF/L	.	2ryy	2A/	.	4f/	.	.	.	2ryy	2ryy
8F\J	.	.	.	.	.	.	.	.	.	.
!	!	!	!	!	!LO:TX:b:t=O Clemens Verte	!	!	!	!	!
4FF/	.	.	.	.	4r	.	.	.	.	.
==	==	==	==	==	==	==	==	==	==	==
*-	*-	*-	*-	*-	*-	*-	*-	*-	*-	*-
!!!system-decoration: [(s1,s2)][(s3)][(s4,s5,s6,s7)]
!!!RDF**dynam: p = p.
!!!RDF**dynam: f = f
!!!RDF**kern: | = vertical stroke
!!!ENC: Andrzej Gręziak
!!!END: 2020-10-04
!!!ENC: Leszek Kubiak
!!!END: 2022-01-27
!!!YEC: Copyright 2022 Narodowy Instytut Fryderyka Chopina (https://polishscores.org)
!!!YEM: License CC-BY-4.0 (https://creativecommons.org/licenses/by/4.0)
